SVG_Azure_Grouped/Data/Service Bus Queue.svg

<?xml version="1.0" encoding="UTF-8" standalone="no"?>
<!-- Generated by Microsoft Visio, SVG Export Service Bus Queue.svg Page-1 -->

<svg
   xmlns:dc="http://purl.org/dc/elements/1.1/"
   xmlns:cc="http://creativecommons.org/ns#"
   xmlns:rdf="http://www.w3.org/1999/02/22-rdf-syntax-ns#"
   xmlns:svg="http://www.w3.org/2000/svg"
   xmlns="http://www.w3.org/2000/svg"
   xmlns:xlink="http://www.w3.org/1999/xlink"
   xmlns:sodipodi="http://sodipodi.sourceforge.net/DTD/sodipodi-0.dtd"
   xmlns:inkscape="http://www.inkscape.org/namespaces/inkscape"
   width="0.78753227in"
   height="0.70868081in"
   viewBox="0 0 56.702214 51.025002"
   xml:space="preserve"
   class="st9"
   version="1.1"
   id="svg133"
   sodipodi:docname="Service Bus Queue.svg"
   style="font-size:12px;overflow:visible;color-interpolation-filters:sRGB;fill:none;fill-rule:evenodd;stroke-linecap:square;stroke-miterlimit:3"
   inkscape:version="0.92.5 (2060ec1f9f, 2020-04-08)"><metadata
   id="metadata137"><rdf:RDF><cc:Work
       rdf:about=""><dc:format>image/svg+xml</dc:format><dc:type
         rdf:resource="http://purl.org/dc/dcmitype/StillImage" /></cc:Work></rdf:RDF></metadata><sodipodi:namedview
   pagecolor="#ffffff"
   bordercolor="#666666"
   borderopacity="1"
   objecttolerance="10"
   gridtolerance="10"
   guidetolerance="10"
   inkscape:pageopacity="0"
   inkscape:pageshadow="2"
   inkscape:window-width="640"
   inkscape:window-height="480"
   id="namedview135"
   showgrid="false"
   inkscape:zoom="1.4869072"
   inkscape:cx="37.79867"
   inkscape:cy="34.006413"
   inkscape:window-x="0"
   inkscape:window-y="0"
   inkscape:window-maximized="0"
   inkscape:current-layer="svg133" />
	<style
   type="text/css"
   id="style2">
	<![CDATA[
		.st1 {fill:#50e6ff;stroke:none;stroke-linecap:butt;stroke-width:28.2406}
		.st2 {fill:#32bedd;stroke:none;stroke-linecap:butt;stroke-width:28.2406}
		.st3 {fill:#198ab3;stroke:none;stroke-linecap:butt;stroke-width:28.2406}
		.st4 {fill:url(#grad0-12);stroke:none;stroke-linecap:butt;stroke-width:28.2406}
		.st5 {fill:#999999;stroke:none;stroke-linecap:butt;stroke-width:34}
		.st6 {fill:#999999;fill-opacity:0.5;stroke:none;stroke-linecap:butt;stroke-width:34}
		.st7 {fill:#949494;stroke:none;stroke-linecap:butt;stroke-width:34}
		.st8 {fill:#b8d432;stroke:none;stroke-linecap:butt;stroke-width:7.89733}
		.st9 {fill:none;fill-rule:evenodd;font-size:12px;overflow:visible;stroke-linecap:square;stroke-miterlimit:3}
	]]>
	</style>

	<defs
   id="Patterns_And_Gradients">
		<linearGradient
   id="grad0-12"
   x1="0"
   y1="0"
   x2="1"
   y2="0"
   gradientTransform="rotate(90,0.5,0.5)">
			<stop
   offset="0"
   stop-color="#005ba1"
   stop-opacity="1"
   id="stop4" />
			<stop
   offset="0.26"
   stop-color="#00589d"
   stop-opacity="1"
   id="stop6" />
			<stop
   offset="0.53"
   stop-color="#004f90"
   stop-opacity="1"
   id="stop8" />
			<stop
   offset="0.8"
   stop-color="#003f7c"
   stop-opacity="1"
   id="stop10" />
			<stop
   offset="1"
   stop-color="#003067"
   stop-opacity="1"
   id="stop12" />
		</linearGradient>
	<linearGradient
   inkscape:collect="always"
   xlink:href="#grad0-12"
   id="linearGradient4647"
   gradientTransform="scale(1.7295604,0.57818159)"
   x1="0"
   y1="191.84284"
   x2="14.044031"
   y2="191.84284"
   gradientUnits="userSpaceOnUse" /><linearGradient
   inkscape:collect="always"
   xlink:href="#grad0-12"
   id="linearGradient4649"
   gradientTransform="scale(1.7295604,0.57818159)"
   x1="0"
   y1="191.84284"
   x2="14.044031"
   y2="191.84284"
   gradientUnits="userSpaceOnUse" /></defs>
	<g
   id="g131"
   transform="translate(-34.000106,-33.9993)">
		<title
   id="title16">Page-1</title>
		<g
   id="group19276-1"
   transform="translate(34.0052,-34.0157)">
			<title
   id="title18">Service Bus Queue.19276</title>
			<g
   id="group19277-2">
				<title
   id="title20">Icon-integration-214</title>
				<g
   id="shape19278-3"
   transform="translate(0.0347618,-17.2009)">
					<title
   id="title22">path4</title>
					<path
   d="m 24.32,102.8 h -0.03 v -0.05 h -0.05 l -12.5,0.01 -11.68,-0.01 H 0 v 16.29 H 24.29 V 102.8 Z"
   class="st1"
   id="path24"
   inkscape:connector-curvature="0"
   style="fill:#50e6ff;stroke:none;stroke-width:28.24060059;stroke-linecap:butt" />
				</g>
				<g
   id="shape19279-5"
   transform="translate(0.0347618,-17.2009)">
					<title
   id="title27">path6</title>
					<path
   d="m 0,102.8 v 16.24 l 12.16,-8.12 z"
   class="st2"
   id="path29"
   inkscape:connector-curvature="0"
   style="fill:#32bedd;stroke:none;stroke-width:28.24060059;stroke-linecap:butt" />
				</g>
				<g
   id="shape19280-7"
   transform="translate(12.1949,-17.2009)">
					<title
   id="title32">path8</title>
					<path
   d="M 12.13,102.8 0,110.92 l 12.13,8.12 z"
   class="st3"
   id="path34"
   inkscape:connector-curvature="0"
   style="fill:#198ab3;stroke:none;stroke-width:28.24060059;stroke-linecap:butt" />
				</g>
				<g
   id="shape19281-9"
   transform="translate(0.0347618,-17.2013)">
					<title
   id="title37">path10</title>
					<path
   d="M 12.13,110.92 0,119.01 v 0.03 h 24.29 v -0.03 z"
   class="st4"
   id="path39"
   inkscape:connector-curvature="0"
   style="fill:url(#linearGradient4647);stroke:none;stroke-width:28.24060059;stroke-linecap:butt" />
				</g>
				<g
   id="group19282-13"
   transform="translate(0,-38.015)">
					<title
   id="title42">g16</title>
					<g
   id="shape19283-14">
						<title
   id="title44">path12</title>
						<path
   d="m 1.9,106.03 h 4.3 v 12.03 a 0.967114,0.977335 0 0 1 -0.967114,0.97733 L 0.97,119.04 A 0.967114,0.977335 0 0 1 0.002886,118.06267 L 0,107.95 a 1.90088,1.92097 0 0 1 1.9,-1.92 z"
   class="st5"
   id="path46"
   inkscape:connector-curvature="0"
   style="fill:#999999;stroke:none;stroke-width:34;stroke-linecap:butt" />
					</g>
					<g
   id="shape19284-16">
						<title
   id="title49">path14</title>
						<path
   d="m 1.9,106.03 h 4.3 v 12.03 a 0.967114,0.977335 0 0 1 -0.967114,0.97733 L 0.97,119.04 A 0.967114,0.977335 0 0 1 0.002886,118.06267 L 0,107.95 a 1.90088,1.92097 0 0 1 1.9,-1.92 z"
   class="st6"
   id="path51"
   inkscape:connector-curvature="0"
   style="fill:#999999;fill-opacity:0.5;stroke:none;stroke-width:34;stroke-linecap:butt" />
					</g>
				</g>
				<g
   id="group19285-18"
   transform="translate(50.49,-38.015)">
					<title
   id="title55">g22</title>
					<g
   id="shape19286-19">
						<title
   id="title57">path18</title>
						<path
   d="m 0,106.03 h 4.3 a 1.90088,1.92097 0 0 1 1.9,1.92 v 10.11 a 0.967114,0.977335 0 0 1 -0.967114,0.97733 L 0.93,119.04 a 0.967114,0.977335 0 0 1 -0.933766,-0.97733 z"
   class="st5"
   id="path59"
   inkscape:connector-curvature="0"
   style="fill:#999999;stroke:none;stroke-width:34;stroke-linecap:butt" />
					</g>
					<g
   id="shape19287-21">
						<title
   id="title62">path20</title>
						<path
   d="m 0,106.03 h 4.3 a 1.90088,1.92097 0 0 1 1.9,1.92 v 10.11 a 0.967114,0.977335 0 0 1 -0.967114,0.97733 L 0.93,119.04 a 0.967114,0.977335 0 0 1 -0.933766,-0.97733 z"
   class="st6"
   id="path64"
   inkscape:connector-curvature="0"
   style="fill:#999999;fill-opacity:0.5;stroke:none;stroke-width:34;stroke-linecap:butt" />
					</g>
				</g>
				<g
   id="shape19288-23"
   transform="translate(0,-44.89)">
					<title
   id="title68">path24</title>
					<path
   d="m 56.69,114.83 v 4.21 H 0 v -4.21 a 1.90088,1.92097 0 0 1 1.9,-1.92 h 52.93 a 1.90088,1.92097 0 0 1 1.86,1.92 z"
   class="st7"
   id="path70"
   inkscape:connector-curvature="0"
   style="fill:#949494;stroke:none;stroke-width:34;stroke-linecap:butt" />
				</g>
				<g
   id="group19289-25">
					<title
   id="title73">g30</title>
					<g
   id="shape19290-26">
						<title
   id="title75">path26</title>
						<path
   d="m 0.97,105.93 h 4.3 a 0.967114,0.977335 0 0 1 0.967114,0.97734 L 6.24,119.04 H 1.9 A 1.90088,1.92097 0 0 1 0,117.12 v -10.11 a 0.967114,0.977335 0 0 1 0.967114,-1.07844 z"
   class="st5"
   id="path77"
   inkscape:connector-curvature="0"
   style="fill:#999999;stroke:none;stroke-width:34;stroke-linecap:butt" />
					</g>
					<g
   id="shape19291-28">
						<title
   id="title80">path28</title>
						<path
   d="m 0.97,105.93 h 4.3 a 0.967114,0.977335 0 0 1 0.967114,0.97734 L 6.24,119.04 H 1.9 A 1.90088,1.92097 0 0 1 0,117.12 v -10.11 a 0.967114,0.977335 0 0 1 0.967114,-1.07844 z"
   class="st6"
   id="path82"
   inkscape:connector-curvature="0"
   style="fill:#999999;fill-opacity:0.5;stroke:none;stroke-width:34;stroke-linecap:butt" />
					</g>
				</g>
				<g
   id="group19292-30"
   transform="translate(50.49,-0.101104)">
					<title
   id="title86">g36</title>
					<g
   id="shape19293-31">
						<title
   id="title88">path32</title>
						<path
   d="m 0.93,106.03 h 4.31 a 0.967114,0.977335 0 0 1 0.967114,0.97733 L 6.2,117.12 a 1.90088,1.92097 0 0 1 -1.9,1.92 H 0 v -11.93 a 0.967114,0.977335 0 0 1 0.933766,-1.07844 z"
   class="st5"
   id="path90"
   inkscape:connector-curvature="0"
   style="fill:#999999;stroke:none;stroke-width:34;stroke-linecap:butt" />
					</g>
					<g
   id="shape19294-33">
						<title
   id="title93">path34</title>
						<path
   d="m 0.93,106.03 h 4.31 a 0.967114,0.977335 0 0 1 0.967114,0.97733 L 6.2,117.12 a 1.90088,1.92097 0 0 1 -1.9,1.92 H 0 v -11.93 a 0.967114,0.977335 0 0 1 0.933766,-1.07844 z"
   class="st6"
   id="path95"
   inkscape:connector-curvature="0"
   style="fill:#999999;fill-opacity:0.5;stroke:none;stroke-width:34;stroke-linecap:butt" />
					</g>
				</g>
				<g
   id="shape19295-35">
					<title
   id="title99">path38</title>
					<path
   d="m 0,117.12 v -4.21 h 56.69 v 4.21 a 1.90088,1.92097 0 0 1 -1.9,1.92 H 1.9 A 1.90088,1.92097 0 0 1 0,117.12 Z"
   class="st7"
   id="path101"
   inkscape:connector-curvature="0"
   style="fill:#949494;stroke:none;stroke-width:34;stroke-linecap:butt" />
				</g>
				<g
   id="shape19296-37"
   transform="translate(32.0835,-17.109)">
					<title
   id="title104">path4-4</title>
					<path
   d="m 24.32,102.8 h -0.03 v -0.05 h -0.05 l -12.5,0.01 -11.68,-0.01 H 0 v 16.29 H 24.29 V 102.8 Z"
   class="st1"
   id="path106"
   inkscape:connector-curvature="0"
   style="fill:#50e6ff;stroke:none;stroke-width:28.24060059;stroke-linecap:butt" />
				</g>
				<g
   id="shape19297-39"
   transform="translate(32.0835,-17.109)">
					<title
   id="title109">path6-0</title>
					<path
   d="m 0,102.8 v 16.24 l 12.16,-8.12 z"
   class="st2"
   id="path111"
   inkscape:connector-curvature="0"
   style="fill:#32bedd;stroke:none;stroke-width:28.24060059;stroke-linecap:butt" />
				</g>
				<g
   id="shape19298-41"
   transform="translate(44.2436,-17.109)">
					<title
   id="title114">path8-8</title>
					<path
   d="M 12.13,102.8 0,110.92 l 12.13,8.12 z"
   class="st3"
   id="path116"
   inkscape:connector-curvature="0"
   style="fill:#198ab3;stroke:none;stroke-width:28.24060059;stroke-linecap:butt" />
				</g>
				<g
   id="shape19299-43"
   transform="translate(32.0835,-17.1093)">
					<title
   id="title119">path10-7</title>
					<path
   d="M 12.13,110.92 0,119.01 v 0.03 h 24.29 v -0.03 z"
   class="st4"
   id="path121"
   inkscape:connector-curvature="0"
   style="fill:url(#linearGradient4649);stroke:none;stroke-width:28.24060059;stroke-linecap:butt" />
				</g>
				<g
   id="shape19300-46"
   transform="translate(25.105,-24.4306)">
					<title
   id="title124">path12-5</title>
					<path
   d="m 3.7,117.13 h 2.38 v 1.91 H 3.7 Z m -3.7,0 h 2.53 v 1.91 H 0 Z"
   class="st8"
   id="path126"
   inkscape:connector-curvature="0"
   style="fill:#b8d432;stroke:none;stroke-width:7.89732981;stroke-linecap:butt" />
				</g>
			</g>
		</g>
	</g>
</svg>

<?xml version="1.0" encoding="UTF-8" standalone="no"?>
<!DOCTYPE svg PUBLIC "-//W3C//DTD SVG 1.1//EN" "http://www.w3.org/Graphics/SVG/1.1/DTD/svg11.dtd">
<!-- Generated by Microsoft Visio, SVG Export Service Bus Queue.svg Page-1 -->
<svg xmlns="http://www.w3.org/2000/svg" xmlns:xlink="http://www.w3.org/1999/xlink" xmlns:ev="http://www.w3.org/2001/xml-events"
		width="1.73192in" height="1.65332in" viewBox="0 0 124.698 119.039" xml:space="preserve" color-interpolation-filters="sRGB"
		class="st9">
	<style type="text/css">
	<![CDATA[
		.st1 {fill:#50e6ff;stroke:none;stroke-linecap:butt;stroke-width:28.2406}
		.st2 {fill:#32bedd;stroke:none;stroke-linecap:butt;stroke-width:28.2406}
		.st3 {fill:#198ab3;stroke:none;stroke-linecap:butt;stroke-width:28.2406}
		.st4 {fill:url(#grad0-12);stroke:none;stroke-linecap:butt;stroke-width:28.2406}
		.st5 {fill:#999999;stroke:none;stroke-linecap:butt;stroke-width:34}
		.st6 {fill:#999999;fill-opacity:0.5;stroke:none;stroke-linecap:butt;stroke-width:34}
		.st7 {fill:#949494;stroke:none;stroke-linecap:butt;stroke-width:34}
		.st8 {fill:#b8d432;stroke:none;stroke-linecap:butt;stroke-width:7.89733}
		.st9 {fill:none;fill-rule:evenodd;font-size:12px;overflow:visible;stroke-linecap:square;stroke-miterlimit:3}
	]]>
	</style>

	<defs id="Patterns_And_Gradients">
		<linearGradient id="grad0-12" x1="0" y1="0" x2="1" y2="0" gradientTransform="rotate(90 0.5 0.5)">
			<stop offset="0" stop-color="#005ba1" stop-opacity="1"/>
			<stop offset="0.26" stop-color="#00589d" stop-opacity="1"/>
			<stop offset="0.53" stop-color="#004f90" stop-opacity="1"/>
			<stop offset="0.8" stop-color="#003f7c" stop-opacity="1"/>
			<stop offset="1" stop-color="#003067" stop-opacity="1"/>
		</linearGradient>
	</defs>
	<g>
		<title>Page-1</title>
		<g id="group18840-1" transform="translate(34.0052,-34.0157)">
			<title>Service Bus Queue.18840</title>
			<g id="group18841-2">
				<title>Icon-integration-214</title>
				<g id="shape18842-3" transform="translate(0.0347618,-17.2009)">
					<title>path4</title>
					<path d="M24.32 102.8 L24.29 102.8 L24.29 102.75 L24.24 102.75 L11.74 102.76 L0.06 102.75 L0 102.75 L0 119.04
								 L24.29 119.04 L24.29 102.8 L24.32 102.8 Z" class="st1"/>
				</g>
				<g id="shape18843-5" transform="translate(0.0347618,-17.2009)">
					<title>path6</title>
					<path d="M0 102.8 L0 119.04 L12.16 110.92 L0 102.8 Z" class="st2"/>
				</g>
				<g id="shape18844-7" transform="translate(12.1949,-17.2009)">
					<title>path8</title>
					<path d="M12.13 102.8 L0 110.92 L12.13 119.04 L12.13 102.8 Z" class="st3"/>
				</g>
				<g id="shape18845-9" transform="translate(0.0347618,-17.2013)">
					<title>path10</title>
					<path d="M12.13 110.92 L0 119.01 L0 119.04 L24.29 119.04 L24.29 119.01 L12.13 110.92 Z" class="st4"/>
				</g>
				<g id="group18846-13" transform="translate(5.64548E-14,-38.015)">
					<title>g16</title>
					<g id="shape18847-14">
						<title>path12</title>
						<path d="M1.9 106.03 L6.2 106.03 L6.2 118.06 a0.967114 0.977335 0 0 1 -0.967114 0.977335 L0.97 119.04 a0.967114
									 0.977335 0 0 1 -0.967114 -0.977335 L0 107.95 A1.90088 1.92097 0 0 1 1.9 106.03 Z" class="st5"/>
					</g>
					<g id="shape18848-16">
						<title>path14</title>
						<path d="M1.9 106.03 L6.2 106.03 L6.2 118.06 a0.967114 0.977335 0 0 1 -0.967114 0.977335 L0.97 119.04 a0.967114
									 0.977335 0 0 1 -0.967114 -0.977335 L0 107.95 A1.90088 1.92097 0 0 1 1.9 106.03 Z" class="st6"/>
					</g>
				</g>
				<g id="group18849-18" transform="translate(50.49,-38.015)">
					<title>g22</title>
					<g id="shape18850-19">
						<title>path18</title>
						<path d="M0 106.03 L4.3 106.03 A1.90088 1.92097 0 0 1 6.2 107.95 L6.2 118.06 a0.967114 0.977335 0 0 1 -0.967114
									 0.977335 L0.93 119.04 a0.967114 0.977335 0 0 1 -0.933766 -0.977335 L0 106.03 Z" class="st5"/>
					</g>
					<g id="shape18851-21">
						<title>path20</title>
						<path d="M0 106.03 L4.3 106.03 A1.90088 1.92097 0 0 1 6.2 107.95 L6.2 118.06 a0.967114 0.977335 0 0 1 -0.967114
									 0.977335 L0.93 119.04 a0.967114 0.977335 0 0 1 -0.933766 -0.977335 L0 106.03 Z" class="st6"/>
					</g>
				</g>
				<g id="shape18852-23" transform="translate(0,-44.89)">
					<title>path24</title>
					<path d="M56.69 114.83 L56.69 119.04 L0 119.04 L0 114.83 A1.90088 1.92097 0 0 1 1.9 112.91 L54.83 112.91 A1.90088
								 1.92097 0 0 1 56.69 114.83 Z" class="st7"/>
				</g>
				<g id="group18853-25">
					<title>g30</title>
					<g id="shape18854-26">
						<title>path26</title>
						<path d="M0.97 105.93 L5.27 105.93 a0.967114 0.977335 0 0 1 0.967114 0.977335 L6.24 119.04 L1.9 119.04 A1.90088
									 1.92097 0 0 1 0 117.12 L0 107.01 a0.967114 0.977335 0 0 1 0.967114 -1.07844 Z" class="st5"/>
					</g>
					<g id="shape18855-28">
						<title>path28</title>
						<path d="M0.97 105.93 L5.27 105.93 a0.967114 0.977335 0 0 1 0.967114 0.977335 L6.24 119.04 L1.9 119.04 A1.90088
									 1.92097 0 0 1 0 117.12 L0 107.01 a0.967114 0.977335 0 0 1 0.967114 -1.07844 Z" class="st6"/>
					</g>
				</g>
				<g id="group18856-30" transform="translate(50.49,-0.101104)">
					<title>g36</title>
					<g id="shape18857-31">
						<title>path32</title>
						<path d="M0.93 106.03 L5.24 106.03 a0.967114 0.977335 0 0 1 0.967114 0.977335 L6.2 117.12 A1.90088 1.92097
									 0 0 1 4.3 119.04 L0 119.04 L0 107.11 a0.967114 0.977335 0 0 1 0.933766 -1.07844 Z" class="st5"/>
					</g>
					<g id="shape18858-33">
						<title>path34</title>
						<path d="M0.93 106.03 L5.24 106.03 a0.967114 0.977335 0 0 1 0.967114 0.977335 L6.2 117.12 A1.90088 1.92097
									 0 0 1 4.3 119.04 L0 119.04 L0 107.11 a0.967114 0.977335 0 0 1 0.933766 -1.07844 Z" class="st6"/>
					</g>
				</g>
				<g id="shape18859-35">
					<title>path38</title>
					<path d="M0 117.12 L0 112.91 L56.69 112.91 L56.69 117.12 A1.90088 1.92097 0 0 1 54.79 119.04 L1.9 119.04 A1.90088
								 1.92097 0 0 1 0 117.12 Z" class="st7"/>
				</g>
				<g id="shape18860-37" transform="translate(32.0835,-17.109)">
					<title>path4-4</title>
					<path d="M24.32 102.8 L24.29 102.8 L24.29 102.75 L24.24 102.75 L11.74 102.76 L0.06 102.75 L0 102.75 L0 119.04
								 L24.29 119.04 L24.29 102.8 L24.32 102.8 Z" class="st1"/>
				</g>
				<g id="shape18861-39" transform="translate(32.0835,-17.109)">
					<title>path6-0</title>
					<path d="M0 102.8 L0 119.04 L12.16 110.92 L0 102.8 Z" class="st2"/>
				</g>
				<g id="shape18862-41" transform="translate(44.2436,-17.109)">
					<title>path8-8</title>
					<path d="M12.13 102.8 L0 110.92 L12.13 119.04 L12.13 102.8 Z" class="st3"/>
				</g>
				<g id="shape18863-43" transform="translate(32.0835,-17.1093)">
					<title>path10-7</title>
					<path d="M12.13 110.92 L0 119.01 L0 119.04 L24.29 119.04 L24.29 119.01 L12.13 110.92 Z" class="st4"/>
				</g>
				<g id="shape18864-46" transform="translate(25.105,-24.4306)">
					<title>path12-5</title>
					<path d="M3.7 117.13 L6.08 117.13 L6.08 119.04 L3.7 119.04 L3.7 117.13 ZM0 117.13 L2.53 117.13 L2.53 119.04 L0
								 119.04 L0 117.13 Z" class="st8"/>
				</g>
			</g>
		</g>
	</g>
</svg>
